X:2153
T:Tra ta mee gholl neeal sthie 
S:Charles Clague 
C:Traditional
O:Isle of Man
Z:Clague collection
B:Kiaull Vannin #153 
M:4/4 
L:1/4
Q:80 
K:G 
D|G G/A/ B A/G/|c2 E G|D G B A|G3 D|G G/A/ B A/G/|c2 E G|D G B A|G3 F/G/| 
A A/A/ d d/c/|B2 G G/F/|E E/E/ c B/A/|G2 F D|G G/A/ B A/G/|c2 E G|D G B A|G3|| 

